X: 3370
T: COMIN' THRO' THE RYE
%R: air, march
B: James Kerr "Merry Melodies" v.3 p.41 #370
Z: 2016 John Chambers <jc:trillian.mit.edu>
M: 2/4
L: 1/8
K: D
|:\
A>AAf | e>def | A>ABA | d3 d |\
A>Aaf | e>def | A>ABA | d2-dz ::\
a>fdf | e>def | a>f d(f/a/) | b3 b |\
a>fg>e | fdef | A>ABA | d2-dz :|

%%sep 1 1 500
%%sep 1 1 500

